public/assets/Icons/backpack.svg

<svg width="128" height="128" xmlns="http://www.w3.org/2000/svg">

 <g>
  <title>background</title>
  <rect fill="none" id="canvas_background" height="402" width="582" y="-1" x="-1"/>
 </g>
 <g>
  <title>Layer 1</title>
  <g id="svg_1">
   <g id="svg_2">
    <g id="svg_3">
     <g id="svg_4">
      <path fill="#def0ac" id="svg_5" d="m91.592,105.5l-55.184,0c-2.706,0 -4.908,-2.202 -4.908,-4.908l0,-48.967l1,0l0,48.967c0,2.155 1.753,3.908 3.908,3.908l55.184,0c2.155,0 3.908,-1.753 3.908,-3.908l0,-48.592l1,0l0,48.592c0,2.706 -2.202,4.908 -4.908,4.908z"/>
     </g>
    </g>
   </g>
   <g id="svg_6">
    <g id="svg_7">
     <g id="svg_8">
      <path fill="#def0ac" id="svg_9" d="m33.634,104.738l-0.668,-0.659c-0.945,-0.933 -1.466,-2.171 -1.466,-3.487l0,-48.967l1,0l0,48.967c0,0.688 0.179,1.349 0.516,1.932c0.925,-5.567 4.794,-30.818 1.953,-47.714l0.986,-0.166c3.176,18.888 -2.091,48.882 -2.146,49.173l-0.175,0.921z"/>
     </g>
    </g>
   </g>
   <g id="svg_10">
    <g id="svg_11">
     <g id="svg_12">
      <path fill="#def0ac" id="svg_13" d="m94.366,104.738l-0.175,-0.922c-0.056,-0.292 -5.349,-30.442 -2.122,-49.32l0.986,0.168c-2.888,16.894 1.001,42.276 1.929,47.859c0.337,-0.583 0.516,-1.244 0.516,-1.932l0,-48.591l1,0l0,48.592c0,1.316 -0.521,2.555 -1.466,3.487l-0.668,0.659z"/>
     </g>
    </g>
   </g>
   <g id="svg_14">
    <g id="svg_15">
     <g id="svg_16">
      <path fill="#def0ac" id="svg_17" d="m86.477,56.729l-44.954,0c-7.181,0 -13.023,-5.843 -13.023,-13.023l0,-14.899c0,-1.696 1.381,-3.077 3.077,-3.077l64.846,0c1.696,0 3.077,1.381 3.077,3.077l0,14.899c0,7.181 -5.843,13.023 -13.023,13.023zm-54.9,-30c-1.146,0 -2.077,0.932 -2.077,2.077l0,14.899c0,6.63 5.394,12.023 12.023,12.023l44.953,0c6.63,0 12.023,-5.394 12.023,-12.023l0,-14.898c0,-1.146 -0.932,-2.077 -2.077,-2.077l-64.845,0l0,-0.001z"/>
     </g>
    </g>
   </g>
   <g id="svg_18">
    <g id="svg_19">
     <g id="svg_20">
      <path fill="#def0ac" id="svg_21" d="m99.5,32.515l-71,-2.028l0,-1.68c0,-1.696 1.381,-3.077 3.077,-3.077l64.846,0c1.696,0 3.077,1.381 3.077,3.077l0,3.708zm-70,-3.001l69,1.972l0,-2.679c0,-1.146 -0.932,-2.077 -2.077,-2.077l-64.846,0c-1.146,0 -2.077,0.932 -2.077,2.077l0,0.707z"/>
     </g>
    </g>
   </g>
   <g id="svg_22">
    <g id="svg_23">
     <g id="svg_24">
      <path fill="#def0ac" id="svg_25" d="m85.43,100.5l-42.86,0c-1.693,0 -3.07,-1.377 -3.07,-3.07l0,-16.171l1,0l0,16.171c0,1.142 0.929,2.07 2.07,2.07l42.86,0c1.142,0 2.07,-0.929 2.07,-2.07l0,-16.171l1,0l0,16.171c0,1.693 -1.377,3.07 -3.07,3.07z"/>
     </g>
    </g>
   </g>
   <g id="svg_26">
    <g id="svg_27">
     <g id="svg_28">
      <path fill="#def0ac" id="svg_29" d="m77.477,87.493l-26.954,0c-7.181,0 -13.023,-5.843 -13.023,-13.023l0,-6.885c0,-1.697 1.381,-3.078 3.077,-3.078l3.923,0l0,1l-3.923,0c-1.146,0 -2.077,0.933 -2.077,2.078l0,6.885c0,6.63 5.394,12.023 12.023,12.023l26.953,0c6.63,0 12.023,-5.394 12.023,-12.023l0,-6.885c0,-1.146 -0.932,-2.078 -2.077,-2.078l-4.006,0l0,-1l4.006,0c1.696,0 3.077,1.381 3.077,3.078l0,6.885c0.001,7.18 -5.842,13.023 -13.022,13.023z"/>
     </g>
    </g>
   </g>
   <g id="svg_30">
    <g id="svg_31">
     <g id="svg_32">
      <rect fill="#def0ac" id="svg_33" y="64.507" x="49.417" width="29.416" height="1"/>
     </g>
    </g>
   </g>
   <g id="svg_34">
    <g id="svg_35">
     <g id="svg_36">
      <path fill="#def0ac" id="svg_37" d="m37.5,67.667c0,-1.779 1.381,-3.16 3.077,-3.16l3.924,0l0,1l-3.924,0c-1.146,0 -2.077,0.933 -2.077,2.078l-1,0.082z"/>
     </g>
    </g>
   </g>
   <g id="svg_38">
    <g id="svg_39">
     <g id="svg_40">
      <rect fill="#def0ac" id="svg_41" y="64.507" x="49.417" width="29.416" height="1"/>
     </g>
    </g>
   </g>
   <g id="svg_42">
    <g id="svg_43">
     <g id="svg_44">
      <path fill="#def0ac" id="svg_45" d="m85.43,100.5l-42.86,0c-0.749,0 -1.475,-0.281 -2.044,-0.792l-0.615,-0.552l0.774,-0.289c0.106,-0.039 10.827,-3.975 24.826,-3.975c7.872,0 15.309,1.226 22.102,3.644l0.654,0.232l-0.429,0.547c-0.589,0.753 -1.467,1.185 -2.408,1.185zm-43.328,-1.056c0.153,0.037 0.311,0.056 0.469,0.056l42.859,0c0.378,0 0.74,-0.104 1.057,-0.297c-6.47,-2.197 -13.521,-3.311 -20.975,-3.311c-11.279,0.001 -20.391,2.584 -23.41,3.552z"/>
     </g>
    </g>
   </g>
   <g id="svg_46">
    <g id="svg_47">
     <g id="svg_48">
      <path fill="#def0ac" id="svg_49" d="m50,85.5c-1.103,0 -2,-0.897 -2,-2s0.897,-2 2,-2s2,0.897 2,2s-0.897,2 -2,2zm0,-3c-0.552,0 -1,0.448 -1,1s0.448,1 1,1s1,-0.448 1,-1s-0.448,-1 -1,-1z"/>
     </g>
    </g>
   </g>
   <g id="svg_50">
    <g id="svg_51">
     <g id="svg_52">
      <path fill="#def0ac" id="svg_53" d="m78,85.5c-1.103,0 -2,-0.897 -2,-2s0.897,-2 2,-2s2,0.897 2,2s-0.897,2 -2,2zm0,-3c-0.552,0 -1,0.448 -1,1s0.448,1 1,1s1,-0.448 1,-1s-0.448,-1 -1,-1z"/>
     </g>
    </g>
   </g>
   <g id="svg_54">
    <g id="svg_55">
     <g id="svg_56">
      <g id="svg_57">
       <path fill="#def0ac" id="svg_58" d="m48.375,70.059l-2.75,0c-0.827,0 -1.5,-0.673 -1.5,-1.5l0,-31.368c0,-0.827 0.673,-1.5 1.5,-1.5l2.75,0c0.827,0 1.5,0.673 1.5,1.5l0,31.367c0,0.828 -0.673,1.501 -1.5,1.501zm-2.75,-33.368c-0.275,0 -0.5,0.225 -0.5,0.5l0,31.367c0,0.275 0.225,0.5 0.5,0.5l2.75,0c0.275,0 0.5,-0.225 0.5,-0.5l0,-31.367c0,-0.275 -0.225,-0.5 -0.5,-0.5l-2.75,0z"/>
      </g>
     </g>
    </g>
    <g id="svg_59">
     <g id="svg_60">
      <g id="svg_61">
       <g id="svg_62">
        <path fill="#def0ac" id="svg_63" d="m47,41.5c-1.103,0 -2,-0.897 -2,-2s0.897,-2 2,-2s2,0.897 2,2s-0.897,2 -2,2zm0,-3c-0.552,0 -1,0.448 -1,1s0.448,1 1,1s1,-0.448 1,-1s-0.448,-1 -1,-1z"/>
       </g>
      </g>
     </g>
     <g id="svg_64">
      <g id="svg_65">
       <g id="svg_66">
        <path fill="#def0ac" id="svg_67" d="m47,46.5c-1.103,0 -2,-0.897 -2,-2s0.897,-2 2,-2s2,0.897 2,2s-0.897,2 -2,2zm0,-3c-0.552,0 -1,0.448 -1,1s0.448,1 1,1s1,-0.448 1,-1s-0.448,-1 -1,-1z"/>
       </g>
      </g>
     </g>
    </g>
    <g id="svg_68">
     <g id="svg_69">
      <g id="svg_70">
       <g id="svg_71">
        <circle fill="#def0ac" id="svg_72" r="0.875" cy="53.458" cx="46.984"/>
       </g>
      </g>
     </g>
     <g id="svg_73">
      <g id="svg_74">
       <g id="svg_75">
        <circle fill="#def0ac" id="svg_76" r="0.875" cy="65.458" cx="46.984"/>
       </g>
      </g>
     </g>
    </g>
   </g>
   <g id="svg_77">
    <g id="svg_78">
     <g id="svg_79">
      <g id="svg_80">
       <path fill="#def0ac" id="svg_81" d="m82.375,70.059l-2.75,0c-0.827,0 -1.5,-0.673 -1.5,-1.5l0,-31.368c0,-0.827 0.673,-1.5 1.5,-1.5l2.75,0c0.827,0 1.5,0.673 1.5,1.5l0,31.367c0,0.828 -0.673,1.501 -1.5,1.501zm-2.75,-33.368c-0.275,0 -0.5,0.225 -0.5,0.5l0,31.367c0,0.275 0.225,0.5 0.5,0.5l2.75,0c0.275,0 0.5,-0.225 0.5,-0.5l0,-31.367c0,-0.275 -0.225,-0.5 -0.5,-0.5l-2.75,0z"/>
      </g>
     </g>
    </g>
    <g id="svg_82">
     <g id="svg_83">
      <g id="svg_84">
       <g id="svg_85">
        <path fill="#def0ac" id="svg_86" d="m81,41.5c-1.103,0 -2,-0.897 -2,-2s0.897,-2 2,-2s2,0.897 2,2s-0.897,2 -2,2zm0,-3c-0.552,0 -1,0.448 -1,1s0.448,1 1,1s1,-0.448 1,-1s-0.448,-1 -1,-1z"/>
       </g>
      </g>
     </g>
     <g id="svg_87">
      <g id="svg_88">
       <g id="svg_89">
        <path fill="#def0ac" id="svg_90" d="m81,46.5c-1.103,0 -2,-0.897 -2,-2s0.897,-2 2,-2s2,0.897 2,2s-0.897,2 -2,2zm0,-3c-0.552,0 -1,0.448 -1,1s0.448,1 1,1s1,-0.448 1,-1s-0.448,-1 -1,-1z"/>
       </g>
      </g>
     </g>
    </g>
    <g id="svg_91">
     <g id="svg_92">
      <g id="svg_93">
       <g id="svg_94">
        <path fill="#def0ac" id="svg_95" d="m85,64l-8,0l0,-4.576c0,-1.424 1.124,-1.424 1.493,-1.424l4.931,0c1.046,0 1.576,0.479 1.576,1.424l0,4.576zm-7,-1l6,0l0,-3.576c0,-0.318 0,-0.424 -0.576,-0.424l-4.931,0c-0.479,0 -0.493,0.036 -0.493,0.424l0,3.576z"/>
       </g>
      </g>
     </g>
     <g id="svg_96">
      <g id="svg_97">
       <g id="svg_98">
        <path fill="#def0ac" id="svg_99" d="m80.984,59.891c-0.474,0 -0.859,-0.386 -0.859,-0.859l0,-1.5c0,-0.474 0.386,-0.859 0.859,-0.859s0.859,0.386 0.859,0.859l0,1.5c0.001,0.473 -0.385,0.859 -0.859,0.859z"/>
       </g>
      </g>
     </g>
    </g>
    <g id="svg_100">
     <g id="svg_101">
      <g id="svg_102">
       <g id="svg_103">
        <path fill="#def0ac" id="svg_104" d="m51,64l-8,0l0,-4.576c0,-1.424 1.124,-1.424 1.493,-1.424l4.931,0c1.046,0 1.576,0.479 1.576,1.424l0,4.576zm-7,-1l6,0l0,-3.576c0,-0.318 0,-0.424 -0.576,-0.424l-4.931,0c-0.479,0 -0.493,0.036 -0.493,0.424l0,3.576z"/>
       </g>
      </g>
     </g>
     <g id="svg_105">
      <g id="svg_106">
       <g id="svg_107">
        <path fill="#def0ac" id="svg_108" d="m46.984,59.891c-0.474,0 -0.859,-0.386 -0.859,-0.859l0,-1.5c0,-0.474 0.386,-0.859 0.859,-0.859s0.859,0.386 0.859,0.859l0,1.5c0.001,0.473 -0.385,0.859 -0.859,0.859z"/>
       </g>
      </g>
     </g>
    </g>
    <g id="svg_109">
     <g id="svg_110">
      <g id="svg_111">
       <g id="svg_112">
        <circle fill="#def0ac" id="svg_113" r="0.875" cy="52.458" cx="80.984"/>
       </g>
      </g>
     </g>
     <g id="svg_114">
      <g id="svg_115">
       <g id="svg_116">
        <circle fill="#def0ac" id="svg_117" r="0.875" cy="65.458" cx="80.984"/>
       </g>
      </g>
     </g>
    </g>
   </g>
   <g id="svg_118">
    <g id="svg_119">
     <g id="svg_120">
      <path fill="#def0ac" id="svg_121" d="m74.024,26l-1,0c0,-5 -3.795,-8.729 -9.024,-8.729c-5.247,0 -9.056,3.729 -9.056,8.729l-1,0c0,-5 4.323,-9.729 10.056,-9.729c5.809,0 10.024,4.729 10.024,9.729z"/>
     </g>
    </g>
   </g>
  </g>
 </g>
</svg>

<?xml version="1.0" ?><!DOCTYPE svg  PUBLIC '-//W3C//DTD SVG 1.1//EN'  'http://www.w3.org/Graphics/SVG/1.1/DTD/svg11.dtd'><svg id="Layer_1" style="enable-background:new 0 0 128 128;" version="1.1" viewBox="0 0 128 128" xml:space="preserve" xmlns="http://www.w3.org/2000/svg" xmlns:xlink="http://www.w3.org/1999/xlink"><g><g><g><g><path d="M91.592,105.5H36.408c-2.706,0-4.908-2.202-4.908-4.908V51.625h1v48.967c0,2.155,1.753,3.908,3.908,3.908h55.184      c2.155,0,3.908-1.753,3.908-3.908V52h1v48.592C96.5,103.298,94.298,105.5,91.592,105.5z"/></g></g></g><g><g><g><path d="M33.634,104.738l-0.668-0.659c-0.945-0.933-1.466-2.171-1.466-3.487V51.625h1v48.967c0,0.688,0.179,1.349,0.516,1.932      c0.925-5.567,4.794-30.818,1.953-47.714l0.986-0.166c3.176,18.888-2.091,48.882-2.146,49.173L33.634,104.738z"/></g></g></g><g><g><g><path d="M94.366,104.738l-0.175-0.922c-0.056-0.292-5.349-30.442-2.122-49.32l0.986,0.168      c-2.888,16.894,1.001,42.276,1.929,47.859c0.337-0.583,0.516-1.244,0.516-1.932V52h1v48.592c0,1.316-0.521,2.555-1.466,3.487      L94.366,104.738z"/></g></g></g><g><g><g><path d="M86.477,56.729H41.523c-7.181,0-13.023-5.843-13.023-13.023V28.807c0-1.696,1.381-3.077,3.077-3.077h64.846      c1.696,0,3.077,1.381,3.077,3.077v14.899C99.5,50.887,93.657,56.729,86.477,56.729z M31.577,26.729      c-1.146,0-2.077,0.932-2.077,2.077v14.899c0,6.63,5.394,12.023,12.023,12.023h44.953c6.63,0,12.023-5.394,12.023-12.023V28.807      c0-1.146-0.932-2.077-2.077-2.077H31.577z"/></g></g></g><g><g><g><path d="M99.5,32.515l-71-2.028v-1.68c0-1.696,1.381-3.077,3.077-3.077h64.846c1.696,0,3.077,1.381,3.077,3.077V32.515z       M29.5,29.514l69,1.972v-2.679c0-1.146-0.932-2.077-2.077-2.077H31.577c-1.146,0-2.077,0.932-2.077,2.077V29.514z"/></g></g></g><g><g><g><path d="M85.43,100.5H42.57c-1.693,0-3.07-1.377-3.07-3.07V81.259h1V97.43c0,1.142,0.929,2.07,2.07,2.07H85.43      c1.142,0,2.07-0.929,2.07-2.07V81.259h1V97.43C88.5,99.123,87.123,100.5,85.43,100.5z"/></g></g></g><g><g><g><path d="M77.477,87.493H50.523c-7.181,0-13.023-5.843-13.023-13.023v-6.885c0-1.697,1.381-3.078,3.077-3.078H44.5v1h-3.923      c-1.146,0-2.077,0.933-2.077,2.078v6.885c0,6.63,5.394,12.023,12.023,12.023h26.953c6.63,0,12.023-5.394,12.023-12.023v-6.885      c0-1.146-0.932-2.078-2.077-2.078h-4.006v-1h4.006c1.696,0,3.077,1.381,3.077,3.078v6.885      C90.5,81.65,84.657,87.493,77.477,87.493z"/></g></g></g><g><g><g><rect height="1" width="29.416" x="49.417" y="64.507"/></g></g></g><g><g><g><path d="M37.5,67.667c0-1.779,1.381-3.16,3.077-3.16h3.924v1h-3.924c-1.146,0-2.077,0.933-2.077,2.078L37.5,67.667z"/></g></g></g><g><g><g><rect height="1" width="29.416" x="49.417" y="64.507"/></g></g></g><g><g><g><path d="M85.43,100.5H42.57c-0.749,0-1.475-0.281-2.044-0.792l-0.615-0.552l0.774-0.289c0.106-0.039,10.827-3.975,24.826-3.975      c7.872,0,15.309,1.226,22.102,3.644l0.654,0.232l-0.429,0.547C87.249,100.068,86.371,100.5,85.43,100.5z M42.102,99.444      c0.153,0.037,0.311,0.056,0.469,0.056H85.43c0.378,0,0.74-0.104,1.057-0.297c-6.47-2.197-13.521-3.311-20.975-3.311      C54.233,95.893,45.121,98.476,42.102,99.444z"/></g></g></g><g><g><g><path d="M50,85.5c-1.103,0-2-0.897-2-2s0.897-2,2-2s2,0.897,2,2S51.103,85.5,50,85.5z M50,82.5c-0.552,0-1,0.448-1,1      s0.448,1,1,1s1-0.448,1-1S50.552,82.5,50,82.5z"/></g></g></g><g><g><g><path d="M78,85.5c-1.103,0-2-0.897-2-2s0.897-2,2-2s2,0.897,2,2S79.103,85.5,78,85.5z M78,82.5c-0.552,0-1,0.448-1,1      s0.448,1,1,1s1-0.448,1-1S78.552,82.5,78,82.5z"/></g></g></g><g><g><g><g><path d="M48.375,70.059h-2.75c-0.827,0-1.5-0.673-1.5-1.5V37.191c0-0.827,0.673-1.5,1.5-1.5h2.75c0.827,0,1.5,0.673,1.5,1.5       v31.367C49.875,69.386,49.202,70.059,48.375,70.059z M45.625,36.691c-0.275,0-0.5,0.225-0.5,0.5v31.367       c0,0.275,0.225,0.5,0.5,0.5h2.75c0.275,0,0.5-0.225,0.5-0.5V37.191c0-0.275-0.225-0.5-0.5-0.5H45.625z"/></g></g></g><g><g><g><g><path d="M47,41.5c-1.103,0-2-0.897-2-2s0.897-2,2-2s2,0.897,2,2S48.103,41.5,47,41.5z M47,38.5c-0.552,0-1,0.448-1,1        s0.448,1,1,1s1-0.448,1-1S47.552,38.5,47,38.5z"/></g></g></g><g><g><g><path d="M47,46.5c-1.103,0-2-0.897-2-2s0.897-2,2-2s2,0.897,2,2S48.103,46.5,47,46.5z M47,43.5c-0.552,0-1,0.448-1,1        s0.448,1,1,1s1-0.448,1-1S47.552,43.5,47,43.5z"/></g></g></g></g><g><g><g><g><circle cx="46.984" cy="53.458" r="0.875"/></g></g></g><g><g><g><circle cx="46.984" cy="65.458" r="0.875"/></g></g></g></g></g><g><g><g><g><path d="M82.375,70.059h-2.75c-0.827,0-1.5-0.673-1.5-1.5V37.191c0-0.827,0.673-1.5,1.5-1.5h2.75c0.827,0,1.5,0.673,1.5,1.5       v31.367C83.875,69.386,83.202,70.059,82.375,70.059z M79.625,36.691c-0.275,0-0.5,0.225-0.5,0.5v31.367       c0,0.275,0.225,0.5,0.5,0.5h2.75c0.275,0,0.5-0.225,0.5-0.5V37.191c0-0.275-0.225-0.5-0.5-0.5H79.625z"/></g></g></g><g><g><g><g><path d="M81,41.5c-1.103,0-2-0.897-2-2s0.897-2,2-2s2,0.897,2,2S82.103,41.5,81,41.5z M81,38.5c-0.552,0-1,0.448-1,1        s0.448,1,1,1s1-0.448,1-1S81.552,38.5,81,38.5z"/></g></g></g><g><g><g><path d="M81,46.5c-1.103,0-2-0.897-2-2s0.897-2,2-2s2,0.897,2,2S82.103,46.5,81,46.5z M81,43.5c-0.552,0-1,0.448-1,1        s0.448,1,1,1s1-0.448,1-1S81.552,43.5,81,43.5z"/></g></g></g></g><g><g><g><g><path d="M85,64h-8v-4.576C77,58,78.124,58,78.493,58h4.931C84.47,58,85,58.479,85,59.424V64z M78,63h6v-3.576        C84,59.106,84,59,83.424,59h-4.931C78.014,59,78,59.036,78,59.424V63z"/></g></g></g><g><g><g><path d="M80.984,59.891c-0.474,0-0.859-0.386-0.859-0.859v-1.5c0-0.474,0.386-0.859,0.859-0.859s0.859,0.386,0.859,0.859v1.5        C81.844,59.505,81.458,59.891,80.984,59.891z"/></g></g></g></g><g><g><g><g><path d="M51,64h-8v-4.576C43,58,44.124,58,44.493,58h4.931C50.47,58,51,58.479,51,59.424V64z M44,63h6v-3.576        C50,59.106,50,59,49.424,59h-4.931C44.014,59,44,59.036,44,59.424V63z"/></g></g></g><g><g><g><path d="M46.984,59.891c-0.474,0-0.859-0.386-0.859-0.859v-1.5c0-0.474,0.386-0.859,0.859-0.859s0.859,0.386,0.859,0.859v1.5        C47.844,59.505,47.458,59.891,46.984,59.891z"/></g></g></g></g><g><g><g><g><circle cx="80.984" cy="52.458" r="0.875"/></g></g></g><g><g><g><circle cx="80.984" cy="65.458" r="0.875"/></g></g></g></g></g><g><g><g><path d="M74.024,26h-1c0-5-3.795-8.729-9.024-8.729c-5.247,0-9.056,3.729-9.056,8.729h-1c0-5,4.323-9.729,10.056-9.729      C69.809,16.271,74.024,21,74.024,26z"/></g></g></g></g></svg>
